X: 18303
T: Humours Of Tulla, The
R: reel
M: 4/4
K: Dmajor
"D"d2 Ad BdAB|d2 fd "G"edBc|"D"d2 Ad BdAd|
[1 "G"(3Bcd ef "A"gefe:|2 "G"(3Bcd ef "A"g2 fg||
|:"D"afff dfff|afff "A"geee|"D"afff dfed|
[1 "G"(3Bcd ef "A"g2 fg:|2 "G"(3Bcd ef "A"g2 fe||

